icons/cog.svg

<svg xmlns="http://www.w3.org/2000/svg" width="24" height="24" viewBox="0 0 24 24">
  <path d="M13,1 C14.1045695,1 15,1.8954305 15,3 L14.9999705,4.58150511 C15.6946922,4.86271806 16.3409204,5.23868588 16.9226292,5.69338263 L18.2942286,4.90192379 C19.2508139,4.34963904 20.4739947,4.67738935 21.0262794,5.6339746 L22.0262794,7.3660254 C22.5785642,8.32261065 22.2508139,9.54579146 21.2942286,10.0980762 L19.9235955,10.8898637 C19.9739647,11.2526941 20,11.6233066 20,12 C20,12.3766934 19.9739647,12.7473059 19.9235955,13.1101363 L21.2942286,13.9019238 C22.2508139,14.4542085 22.5785642,15.6773893 22.0262794,16.6339746 L21.0262794,18.3660254 C20.4739947,19.3226107 19.2508139,19.650361 18.2942286,19.0980762 L16.9226292,18.3066174 C16.3409204,18.7613141 15.6946922,19.1372819 14.9999705,19.4184949 L15,21 C15,22.1045695 14.1045695,23 13,23 L11,23 C9.8954305,23 9,22.1045695 9,21 L9.0000295,19.4184949 C8.30530781,19.1372819 7.65907961,18.7613141 7.07737084,18.3066174 L5.70577137,19.0980762 C4.74918612,19.650361 3.52600531,19.3226107 2.97372056,18.3660254 L1.97372056,16.6339746 C1.42143581,15.6773893 1.74918612,14.4542085 2.70577137,13.9019238 L4.07640449,13.1101363 C4.02603525,12.7473059 4,12.3766934 4,12 C4,11.6233066 4.02603525,11.2526941 4.07640449,10.8898637 L2.70577137,10.0980762 C1.74918612,9.54579146 1.42143581,8.32261065 1.97372056,7.3660254 L2.97372056,5.6339746 C3.52600531,4.67738935 4.74918612,4.34963904 5.70577137,4.90192379 L7.07737084,5.69338263 C7.65907961,5.23868588 8.30530781,4.86271806 9.0000295,4.58150511 L9,3 C9,1.8954305 9.8954305,1 11,1 L13,1 Z M12,8 C9.790861,8 8,9.790861 8,12 C8,14.209139 9.790861,16 12,16 C14.209139,16 16,14.209139 16,12 C16,9.790861 14.209139,8 12,8 Z"/>
</svg>

<svg xmlns="http://www.w3.org/2000/svg" viewBox="0 0 24 24">
  <path d="M13 1a2 2 0 0 1 2 2v1.58a8 8 0 0 1 1.92 1.11l1.37-.79a2 2 0 0 1 2.74.73l1 1.74a2 2 0 0 1-.74 2.73l-1.37.79a8.07 8.07 0 0 1 0 2.22l1.37.8a2 2 0 0 1 .74 2.72l-1 1.74a2 2 0 0 1-2.74.73l-1.37-.8A8 8 0 0 1 15 19.43V21a2 2 0 0 1-2 2h-2a2 2 0 0 1-2-2v-1.58a8 8 0 0 1-1.92-1.11l-1.37.79a2 2 0 0 1-2.74-.73l-1-1.74a2 2 0 0 1 .74-2.73l1.37-.79a8.07 8.07 0 0 1 0-2.22l-1.37-.8a2 2 0 0 1-.74-2.72l1-1.74a2 2 0 0 1 2.74-.73l1.37.8A8 8 0 0 1 9 4.57V3c0-1.1.9-2 2-2h2zm-1 7a4 4 0 1 0 0 8 4 4 0 0 0 0-8z"/>
</svg>
